X: 40732
T: Toss The Feathers
R: reel
M: 4/4
K: Dmixolydian
|:"D"D2 FD ADFD|ABcA "C"GECE|"D"D2 FD ADFA|d2 ed "C"cAGE|
"D"D2 FD ADFD|ABcA "C"GEDE|"Am"cABG A2 AB|1 "C"cded "Am"cAGE:|2 "C"cded cA"G"GB||
|:"D"Add^c d2 ^cd|ed^cd ed^cd|"A"eaag a3g|eaag ed^cd|
"Em"efge "G"afge|"D"dfed "C"cAAB|"Am"c/B/A BG A3B|1 "C"cded cA"G"GB:|2 "C"cded "G"cAGE||

